X: 6
T:Minuet. JBa.06
M:3/4
L:1/4
Q:80
S:Joseph Barnes MS,Carlisle,1762.
R:minuet
O:England
A:Carlisle
N:Key Signature is given as two flats, given in the approximate
N:neighbourhood of B and E.
N:NB  1 - shown as a sharp - this is an old style relative not  absolute
N:accidental -in  modern terms, a natural.NB  2 - not shown as
N:dotted..CGr.
Z:vmp.C.Graebe.
K:Bb
"NB re key sig."Fff | f e/d/ c | dcB | A G/A/ F | CFF |\
F/G/A/B/ c |!
 CFF | F/G/A/B/ c |fed |gcd | e/d/ cB | c3 :|!
|:Aaa | ag/f/e | f g/f/e/d/ | A2 a |bag | ad"NB1"=e |!
 f g/f/e/f/ |d2 d/e/ |fed | cBA | Ggf | e2d |!
c f-f | f/g/a/f/g/e/ | c f-f | f/g/a/f/ g |bag | "NB2"f3 |]
